gdscript/src/main/resources/icons/godot_editor/ColorPickerButton.svg

<svg height="16" viewBox="0 0 16 16" width="16" xmlns="http://www.w3.org/2000/svg"><path d="m13 1c-1.108 0-2 .892-2 2v2h-1v2h1v5a2 2 0 0 0 1 1.7285v1.2715h2v-1.2695a2 2 0 0 0 1-1.7305v-5h1v-2h-1v-2c0-1.108-.892-2-2-2zm-9 1v3.1328l-1.4453-.96484-1.1094 1.6641 3 2c.3359.2239.77347.2239 1.1094 0l3-2-1.1094-1.6641-1.4453.96484v-3.1328zm8 5h2v5a1 1 0 0 1 -1 1 1 1 0 0 1 -1-1zm-8.5 3c-.831 0-1.5.669-1.5 1.5v.5 1h-1v2h8v-2h-1v-1-.5c0-.831-.669-1.5-1.5-1.5z" fill="#8eef97"/></svg>

<svg height="16" viewBox="0 0 16 16" width="16" xmlns="http://www.w3.org/2000/svg"><path d="M11 5h-1v2h1v5a2 2 0 0 0 1 1.728V15h2v-1.27A2 2 0 0 0 15 12V7h1V5h-1V3a1 1 0 0 0-4 0zm1 2h2v5a1 1 0 0 1-2 0zM4 2v3.133l-1.445-.965-1.11 1.664 3 2a1 1 0 0 0 1.11 0l3-2-1.11-1.664L6 5.133V2zm-.5 8A1.5 1.5 0 0 0 2 11.5V13H1v2h8v-2H8v-1.5A1.5 1.5 0 0 0 6.5 10z" fill="#8eef97"/></svg>
